!!!!SEGMENT: pl-cz--iii-685--006_volckmer-augustin--missa-ex-b-sanctus.krn
!!!cenid: 17xx:1192
!!!COM: Volckmer, Augustin
!!!COM-rismID: pe30020656
!!!CDT: 1755-~1820
!!!CNT:
!!!OPR: Missa ex B
!!!OTL: Sanctus
!!!OMV: 006
!!!PDT:
!!!AGN: Sacred; Mass
!!!SMS-siglum: PL-CZ
!!!SMS-shelfmark: III-685
!!!SMS-shelfwork: 001-006 M
!!!SMS-variant:
!!!SMS-altvar:
!!!NIFC-rismSourceID: 300001397
!!!NIFC-rismChildID: 300001397
!!!NIFC-islandoraID: pl-cz:40224
!!!URL-pdf-islandora: https://repozytorium.nifc.pl/islandora/object/pl-cz%3A40224/datastream/PDF/view
!!!URL-scan: https://polish.musicsources.pl/pl/lokalizacje/galeria/rekopisy/6984/1 @EN{Scan on Polish Music Sources Website} @PL{Skany w portalu Dziedzictwo Muzyki Polskiej w otwartym dostępie}
!!!ONB-nifc: UWAGA: części Mszy: Kyrie, Gloria, Graduale (instrumentalne), Credo, Eia chori jubilemus,
!!!AIN: 1 alto 1 bass 2 clars 2 cor 1 organ 1 soprn 1 tenor 1 viola 2 violn
!!!key: B-
**kern	**fba	**dynam	**kern	**dynam	**kern	**dynam	**kern	**dynam	**kern	**text	**kern	**text	**kern	**text	**kern	**text	**dynam	**kern	**dynam	**kern	**dynam	**kern	**dynam	**kern	**dynam
*	*	*	*group4	*	*group4	*	*group4	*	*group3	*	*group3	*	*group3	*	*group3	*	*	*group2	*	*group2	*	*group1	*	*group1	*
*staff12	*	*	*staff11	*	*staff10	*	*staff9	*	*staff8	*staff8	*staff7	*staff7	*staff6	*staff6	*staff5	*staff5	*staff5	*staff4	*	*staff3	*	*staff2	*	*staff1	*
*I"Organo. e Fagotti.	*	*	*I"Viola. obl.	*	*I"Violino Secundo.	*	*I"Violino Primo.	*	*I"Basso	*	*I"Tenore	*	*I"Alto	*	*I"Canto	*	*	*I"Corno. Secundo in B Baſson	*	*I"Corno Primo. in B Baſson.	*	*I"Clarinetto Secundo	*	*I"Clarinetto Primo.	*
*I'org e fag	*	*	*I'vla	*	*I'vl 2	*	*I'vl 1	*	*I'B	*	*I'T	*	*I'A	*	*I'S	*	*	*I'cor 2	*	*I'cor 1	*	*I'cl 2	*	*I'cl 1	*
*Iorgan	*	*	*Iviola	*	*Ivioln	*	*Ivioln	*	*Ibass	*	*Itenor	*	*Ialto	*	*Isoprn	*	*	*Icor	*	*Icor	*	*Iclars	*	*Iclars	*
*Ifagot	*	*	*	*	*	*	*	*	*	*	*	*	*	*	*	*	*	*	*	*	*	*	*	*	*
*ICklav	*	*	*ICstr	*	*ICstr	*	*ICstr	*	*ICvox	*	*ICvox	*	*ICvox	*	*ICvox	*	*	*ICbras	*	*ICbras	*	*ICww	*	*ICww	*
*ICww	*	*	*	*	*	*	*	*	*	*	*	*	*	*	*	*	*	*	*	*	*	*	*	*	*
*	*	*	*	*	*	*	*	*	*IGcoro	*	*IGcoro	*	*IGcoro	*	*IGcoro	*	*	*	*	*	*	*	*	*	*
*clefF4	*	*	*clefC3	*	*clefG2	*	*clefG2	*	*clefF4	*	*clefC4	*	*clefC3	*	*clefC1	*	*	*clefG2	*	*clefG2	*	*clefG2	*	*clefG2	*
*	*	*	*	*	*	*	*	*	*	*	*	*	*	*	*	*	*	*ITrd1c2	*	*ITrd1c2	*	*ITrd1c2	*	*ITrd1c2	*
*k[b-e-]	*	*	*k[b-e-]	*	*k[b-e-]	*	*k[b-e-]	*	*k[b-e-]	*	*k[b-e-]	*	*k[b-e-]	*	*k[b-e-]	*	*	*k[b-e-]	*	*k[b-e-]	*	*k[b-e-]	*	*k[b-e-]	*
*B-:	*	*	*B-:	*	*B-:	*	*B-:	*	*B-:	*	*B-:	*	*B-:	*	*B-:	*	*	*B-:	*	*B-:	*	*B-:	*	*B-:	*
*M3/4	*	*	*M3/4	*	*M3/4	*	*M3/4	*	*M3/4	*	*M3/4	*	*M3/4	*	*M3/4	*	*	*M3/4	*	*M3/4	*	*M3/4	*	*M3/4	*
=1	=1	=1	=1	=1	=1	=1	=1	=1	=1	=1	=1	=1	=1	=1	=1	=1	=1	=1	=1	=1	=1	=1	=1	=1	=1
*all\right	*	*	*all\right	*	*all\right	*	*all\right	*	*all\right	*	*all\right	*	*all\right	*	*all\right	*	*	*	*	*all\right	*	*all\right	*	*all\right	*
!LO:TX:a:t=1	!	!	!	!	!	!	!LO:TX:a:t=B. Adagio	!	!	!	!	!	!	!	!	!	!	!	!	!LO:TX:a:t=B. Adagio	!	!	!	!	!
!LO:TX:b:t=Tutti	!	!	!LO:TX:a:t=B. Adagio	!	!LO:TX:a:t=B. Adagio	!	!	!	!	!	!	!	!	!	!	!	!	!LO:TX:a:t=1	!	!LO:TX:a:t=in B&colon;	!	!	!	!	!
!LO:TX:a:t=B. Adagio	!	!	!LO:TX:a:t=1	!	!LO:TX:a:t=1	!	!LO:TX:b:t=Sanctus	!	!LO:TX:a:t=1	!	!LO:TX:a:t=1	!	!LO:TX:a:t=1	!	!LO:TX:a:t=1	!	!	!LO:TX:a:t=in B	!	!LO:TX:b:t=Sanctus	!	!LO:TX:a:t=1	!	!LO:TX:a:t=B. Adagio	!
2.r	.	.	2.r	.	2.r	.	(4f'/	p	2.r	.	2.r	.	2.r	.	2.r	.	.	2.r	.	4f'/	p	2.r	.	(4f'/	p
.	.	.	.	.	.	.	4f'/	.	.	.	.	.	.	.	.	.	.	.	.	4f'/	.	.	.	4f'/	.
.	.	.	.	.	.	.	4f'/)	.	.	.	.	.	.	.	.	.	.	.	.	4f'/	.	.	.	4f'/)	.
=2	=2	=2	=2	=2	=2	=2	=2	=2	=2	=2	=2	=2	=2	=2	=2	=2	=2	=2	=2	=2	=2	=2	=2	=2	=2
*	*	*	*	*	*	*	*	*	*	*	*	*	*	*	*	*	*below	*	*	*	*	*	*	*	*
!	!	!	!	!LO:DY:t=f&colon;	!	!	!	!	!LO:TX:a:t=B Adagio	!	!LO:TX:a:t=B Adagio	!	!LO:TX:a:t=B. Adagio	!	!LO:TX:a:t=B. Adagio	!	!LO:DY:t=forto:color=red	!LO:TX:t=Adagio	!LO:DY:rj:t=f	!	!	!LO:TX:a:t=Adagio	!	!	!
4BB-/	3	.	4f'\	f	4b-'\	f	4dd'\	f	4BB-/	San-	4f\	San-	4b-'\	San-	4dd'\	San-	f	4b-'\	f	4dd'\	f	4b-\	.	4dd'\	f
4FF/	3	.	4f'\	.	4a'\	.	4cc'\	.	4F\	-ctus	4f\	-ctus	4a'\	-ctus	4cc'\	-ctus	.	4f'/	.	4cc'\	.	4a\	.	4cc'\	.
4r	.	.	4r	.	4r	.	4r	.	4r	.	4r	.	4r	.	4r	.	.	4r	.	4r	.	4r	.	4r	.
=3	=3	=3	=3	=3	=3	=3	=3	=3	=3	=3	=3	=3	=3	=3	=3	=3	=3	=3	=3	=3	=3	=3	=3	=3	=3
!LO:TX:a:t=1	!	!	!LO:TX:a:t=1	!	!LO:TX:a:t=1	!	!	!	!LO:TX:a:t=1	!	!LO:TX:a:t=1	!	!LO:TX:a:t=1	!	!LO:TX:a:t=1	!	!	!LO:TX:a:t=1	!	!LO:TX:i:t=Solo:color=grey	!	!LO:TX:a:t=1	!	!	!
2.r	.	.	2.r	.	2.r	.	(4f'/	p	2.r	.	2.r	.	2.r	.	2.r	.	.	2.r	.	4f'/	p	2.r	.	(4f'/	p
.	.	.	.	.	.	.	4f'/	.	.	.	.	.	.	.	.	.	.	.	.	4f'/	.	.	.	4f'/	.
.	.	.	.	.	.	.	4f'/)	.	.	.	.	.	.	.	.	.	.	.	.	4f'/	.	.	.	4f'/)	.
=4	=4	=4	=4	=4	=4	=4	=4	=4	=4	=4	=4	=4	=4	=4	=4	=4	=4	=4	=4	=4	=4	=4	=4	=4	=4
4AA/	3	.	4f'\	.	4cc'\	.	4ee-'\	f	4A\	San-	4f\	San-	4cc'\	San-	4ee-'\	San-	.	4f'/	.	4cc'\	f	4cc\	.	4ee-'\	f
4BB-/	3	.	4f'\	.	4b-'\	.	4dd'\	.	4B-\	-ctus	4f\	-ctus	4b-'\	-ctus	4dd'\	-ctus	.	4b-'\	.	4dd'\	.	4b-\	.	4dd'\	.
4r	.	.	4r	.	4r	.	4r	.	4r	.	4r	.	4r	.	4r	.	.	4r	.	4r	.	4r	.	4r	.
=5	=5	=5	=5	=5	=5	=5	=5	=5	=5	=5	=5	=5	=5	=5	=5	=5	=5	=5	=5	=5	=5	=5	=5	=5	=5
!LO:TX:a:t=1	!	!	!LO:TX:a:t=1	!	!LO:TX:a:t=1	!	!	!	!LO:TX:a:t=1	!	!LO:TX:a:t=1	!	!LO:TX:a:t=1	!	!LO:TX:a:t=1	!	!	!LO:TX:a:t=1	!	!	!	!LO:TX:a:t=1	!	!	!
2.r	.	.	2.r	.	2.r	.	(4f'/	p	2.r	.	2.r	.	2.r	.	2.r	.	.	2.r	.	4f'/	p	2.r	.	(4f'/	p
!	!	!	!	!	!	!	!	!	!	!	!	!	!	!	!	!	!	!	!	!LO:TX:i:t=Solo:color=grey	!	!	!	!	!
.	.	.	.	.	.	.	4f'/	.	.	.	.	.	.	.	.	.	.	.	.	4f'/	.	.	.	4f'/	.
.	.	.	.	.	.	.	4f'/)	.	.	.	.	.	.	.	.	.	.	.	.	4f'/	.	.	.	4f'/)	.
=6	=6	=6	=6	=6	=6	=6	=6	=6	=6	=6	=6	=6	=6	=6	=6	=6	=6	=6	=6	=6	=6	=6	=6	=6	=6
*	*	*	*	*	*	*	*	*	*	*ij	*	*	*	*	*	*	*	*	*	*	*	*	*	*	*
4BB-/	3 -7	.	4f'\	.	4a-X/	.	4dd'\	f	4B-\	San-	4f\	San-	4a-X'\	San-	4dd\	San-	.	4B-/	.	4b-'\	f	4a-X\	.	4dd'\	f
4E-\	3	.	4b-'\	.	4g/	.	4ee-'\	.	4E-\	-ctus	4B-\	-ctus	4g'\	-ctus	4ee-\	-ctus	.	4B-/	.	4b-'\	.	4g\	.	4ee-'\	.
*	*	*	*	*	*	*	*	*	*	*Xij	*	*	*	*	*	*	*	*	*	*	*	*	*	*	*
4r	.	.	4r	.	4r	p	8r	.	4r	.	4r	.	4r	.	4r	.	.	4r	.	4r	.	4r	.	4r	.
.	.	.	.	.	.	.	(16gg\LL	p	.	.	.	.	.	.	.	.	.	.	.	.	.	.	.	.	.
.	.	.	.	.	.	.	16bn\JJ)	.	.	.	.	.	.	.	.	.	.	.	.	.	.	.	.	.	.
=7	=7	=7	=7	=7	=7	=7	=7	=7	=7	=7	=7	=7	=7	=7	=7	=7	=7	=7	=7	=7	=7	=7	=7	=7	=7
!LO:TX:a:t=2	!	!	!	!	!	!	!	!	!LO:TX:a:t=2	!	!LO:TX:a:t=2	!	!LO:TX:a:t=2	!	!LO:TX:a:t=2	!	!	!LO:TX:a:t=2	!	!LO:TX:a:t=2	!	!LO:TX:a:t=2	!	!LO:TX:a:t=2	!
1.r	.	.	4r	.	(8e-/L	.	(8.cc\L	.	1.r	.	1.r	.	1.r	.	1.r	.	.	1.r	.	1.r	.	1.r	.	1.r	.
.	.	.	.	.	8d/J)	.	.	.	.	.	.	.	.	.	.	.	.	.	.	.	.	.	.	.	.
.	.	.	.	.	.	.	16bn\Jk)	.	.	.	.	.	.	.	.	.	.	.	.	.	.	.	.	.	.
.	.	.	4g\	.	8e-'/L	.	8cc'\L	.	.	.	.	.	.	.	.	.	.	.	.	.	.	.	.	.	.
.	.	.	.	.	8e-'/	.	8cc'\	.	.	.	.	.	.	.	.	.	.	.	.	.	.	.	.	.	.
.	.	.	4g\	.	8Bn'/	.	8dd'\	.	.	.	.	.	.	.	.	.	.	.	.	.	.	.	.	.	.
.	.	.	.	.	8B'/J	.	8dd'\J	.	.	.	.	.	.	.	.	.	.	.	.	.	.	.	.	.	.
=8	=8	=8	=8	=8	=8	=8	=8	=8	=8	=8	=8	=8	=8	=8	=8	=8	=8	=8	=8	=8	=8	=8	=8	=8	=8
.	.	.	4g\	.	(8c/L	.	(8.ee-\L	.	.	.	.	.	.	.	.	.	.	.	.	.	.	.	.	.	.
.	.	.	.	.	8d/)	.	.	.	.	.	.	.	.	.	.	.	.	.	.	.	.	.	.	.	.
.	.	.	.	.	.	.	16dd\Jk)	.	.	.	.	.	.	.	.	.	.	.	.	.	.	.	.	.	.
.	.	.	4r	.	8e-'/	.	8cc'\L	.	.	.	.	.	.	.	.	.	.	.	.	.	.	.	.	.	.
.	.	.	.	.	8e-'/	.	8cc'\	.	.	.	.	.	.	.	.	.	.	.	.	.	.	.	.	.	.
.	.	.	8g'\L	.	8en'/	.	8b-X'\	.	.	.	.	.	.	.	.	.	.	.	.	.	.	.	.	.	.
!	!	!	!	!	!	!LO:DY:t=forto	!	!	!	!	!	!	!	!	!	!	!	!	!	!	!	!	!	!	!
.	.	.	8g'\J	.	8e'/J	f	8b-'\J	.	.	.	.	.	.	.	.	.	.	.	.	.	.	.	.	.	.
!	!	!	!	!	!	!	!LO:LB:g=original	!	!	!	!	!	!	!	!	!	!	!	!	!	!	!	!	!	!
=9	=9	=9	=9	=9	=9	=9	=9	=9	=9	=9	=9	=9	=9	=9	=9	=9	=9	=9	=9	=9	=9	=9	=9	=9	=9
*	*	*	*	*	*	*	*	*	*	*	*	*	*	*	*	*	*	*	*	*2\right	*	*2\right	*	*2\right	*
!	!	!	!	!	!	!	!	!LO:DY:t=forto	!	!	!	!	!	!	!	!	!	!	!	!	!	!	!	!	!LO:DY:rj:t=f&colon;
8F\L	5_ 3_	.	8f'\L	.	(16e-X/LL	.	4a/	f	4.F\	Do-	4.e-X\	Do-	4.an\	Do-	4.cc\	Do-	.	2.f/	.	2.cc\	f	2.an\	.	2.cc\	f
.	.	.	.	.	16f/)	.	.	.	.	.	.	.	.	.	.	.	.	.	.	.	.	.	.	.	.
8F\	.	.	8c'\J	.	(16e-/	.	.	.	.	.	.	.	.	.	.	.	.	.	.	.	.	.	.	.	.
.	.	.	.	.	16f/JJ)	.	.	.	.	.	.	.	.	.	.	.	.	.	.	.	.	.	.	.	.
*	*	*	*2\right	*	*	*	*	*	*	*	*	*	*	*	*	*	*	*	*	*	*	*	*	*	*
*	*	*	*tremolo	*	*	*	*	*	*	*	*	*	*	*	*	*	*	*	*	*	*	*	*	*	*
!	!	!	!LO:TX:t=....	!	!LO:LB:g=original	!	!	!	!	!	!	!	!	!	!	!	!	!	!	!	!	!	!	!	!
8F\	.	.	8c'\L	.	(16e-/LL	.	16r	.	.	.	.	.	.	.	.	.	.	.	.	.	.	.	.	.	.
.	.	.	.	.	16f/)	.	16f'/LL	.	.	.	.	.	.	.	.	.	.	.	.	.	.	.	.	.	.
8F\	.	.	8c'\	.	(16e-/	.	(16a/	.	8F\	-mi-	8e-\	-mi-	8a\	-mi-	8cc\	-mi-	.	.	.	.	.	.	.	.	.
.	.	.	.	.	16f/JJ)	.	16cc/JJ)	.	.	.	.	.	.	.	.	.	.	.	.	.	.	.	.	.	.
!	!	!	!	!	!	!	!LO:TX:t=P:problem:mixed beam	!	!	!	!	!	!	!	!	!	!	!	!	!	!	!	!	!	!
8E-\	.	.	8c'\	.	(16e-/LL	.	8ff'\L	.	4E-\	-nus	4e-\	-nus	4a\	-nus	4cc\	-nus	.	.	.	.	.	.	.	.	.
.	.	.	.	.	16f/)	.	.	.	.	.	.	.	.	.	.	.	.	.	.	.	.	.	.	.	.
8E-\J	x x	.	8c'\J	.	(16e-/	.	8a'/J	.	.	.	.	.	.	.	.	.	.	.	.	.	.	.	.	.	.
.	.	.	.	.	16f/JJ)	.	.	.	.	.	.	.	.	.	.	.	.	.	.	.	.	.	.	.	.
=10	=10	=10	=10	=10	=10	=10	=10	=10	=10	=10	=10	=10	=10	=10	=10	=10	=10	=10	=10	=10	=10	=10	=10	=10	=10
*2\right	*	*	*	*	*	*	*	*	*	*	*	*	*	*	*	*	*	*	*	*	*	*	*	*	*
*tremolo	*	*	*	*	*	*	*	*	*2\right	*	*2\right	*	*2\right	*	*2\right	*	*	*2\right	*	*	*	*	*	*	*
8D\L	6_ 3_	.	8B-/L	.	(16d/LL	.	4b-\	.	2D\	De-	2f\	De-	2b-\	De-	2dd\	De-	.	2.b-\	.	2.dd\	.	2.b-\	.	2.dd\	.
.	.	.	.	.	16f/)	.	.	.	.	.	.	.	.	.	.	.	.	.	.	.	.	.	.	.	.
8D\	.	.	8B-/	.	(16d/	.	.	.	.	.	.	.	.	.	.	.	.	.	.	.	.	.	.	.	.
.	.	.	.	.	16f/JJ)	.	.	.	.	.	.	.	.	.	.	.	.	.	.	.	.	.	.	.	.
*	*	*	*	*	*tremolo	*	*	*	*	*	*	*	*	*	*	*	*	*	*	*	*	*	*	*	*
8D\	.	.	8B-/	.	(32d/LLL	.	16r	.	.	.	.	.	.	.	.	.	.	.	.	.	.	.	.	.	.
.	.	.	.	.	32f/	.	.	.	.	.	.	.	.	.	.	.	.	.	.	.	.	.	.	.	.
.	.	.	.	.	32d/	.	16f'/LL	.	.	.	.	.	.	.	.	.	.	.	.	.	.	.	.	.	.
.	.	.	.	.	32f/	.	.	.	.	.	.	.	.	.	.	.	.	.	.	.	.	.	.	.	.
8D\J	.	.	8B-/	.	32d/	.	(16b-/	.	.	.	.	.	.	.	.	.	.	.	.	.	.	.	.	.	.
.	.	.	.	.	32f/	.	.	.	.	.	.	.	.	.	.	.	.	.	.	.	.	.	.	.	.
.	.	.	.	.	32d/	.	16dd/JJ)	.	.	.	.	.	.	.	.	.	.	.	.	.	.	.	.	.	.
.	.	.	.	.	32f/	.	.	.	.	.	.	.	.	.	.	.	.	.	.	.	.	.	.	.	.
*Xtremolo	*	*	*	*	*	*	*	*	*	*	*	*	*	*	*	*	*	*	*	*	*	*	*	*	*
8BB-/L	.	.	8B-/	.	32d/	.	8ff'\L	.	4B-\	-us	4f\	-us	4b-\	-us	4dd\	-us	.	.	.	.	.	.	.	.	.
.	.	.	.	.	32f/	.	.	.	.	.	.	.	.	.	.	.	.	.	.	.	.	.	.	.	.
.	.	.	.	.	32d/	.	.	.	.	.	.	.	.	.	.	.	.	.	.	.	.	.	.	.	.
.	.	.	.	.	32f/	.	.	.	.	.	.	.	.	.	.	.	.	.	.	.	.	.	.	.	.
8BB-/J	x x	.	8B-/J	.	32d/	.	8b-'\J	.	.	.	.	.	.	.	.	.	.	.	.	.	.	.	.	.	.
.	.	.	.	.	32f/	.	.	.	.	.	.	.	.	.	.	.	.	.	.	.	.	.	.	.	.
.	.	.	.	.	32d/	.	.	.	.	.	.	.	.	.	.	.	.	.	.	.	.	.	.	.	.
.	.	.	.	.	32f/)JJJ	.	.	.	.	.	.	.	.	.	.	.	.	.	.	.	.	.	.	.	.
*tremolo	*	*	*	*	*Xtremolo	*	*	*	*	*	*	*	*	*	*	*	*	*	*	*	*	*	*	*	*
!	!	!	!	!	!	!	!	!	!LO:LB:g=original	!	!	!	!LO:LB:g=original	!	!	!	!	!	!	!	!	!	!	!	!
=11	=11	=11	=11	=11	=11	=11	=11	=11	=11	=11	=11	=11	=11	=11	=11	=11	=11	=11	=11	=11	=11	=11	=11	=11	=11
!	!	!	!LO:TX:b:t=....	!	!	!	!	!	!	!	!	!	!	!	!	!	!	!	!	!	!	!	!	!	!
8AA/L	5_ 3_	.	8A'/L	.	(16c/LL	.	4cc'\	.	2A\	De-	2f\	De-	2cc\	De-	2ee-\	De-	.	2.f/	.	2.cc\	.	2.cc\	.	2.ee-\	.
.	.	.	.	.	16f/)	.	.	.	.	.	.	.	.	.	.	.	.	.	.	.	.	.	.	.	.
8AA/	.	.	8A'/	.	(16c/	.	.	.	.	.	.	.	.	.	.	.	.	.	.	.	.	.	.	.	.
.	.	.	.	.	16f/JJ)	.	.	.	.	.	.	.	.	.	.	.	.	.	.	.	.	.	.	.	.
8AA/	.	.	8A'/	.	(16c/LL	.	16r	.	.	.	.	.	.	.	.	.	.	.	.	.	.	.	.	.	.
.	.	.	.	.	16f/)	.	16f'/LL	.	.	.	.	.	.	.	.	.	.	.	.	.	.	.	.	.	.
8AA/J	.	.	8A'/J	.	(16c/	.	(16a/	.	.	.	.	.	.	.	.	.	.	.	.	.	.	.	.	.	.
.	.	.	.	.	16f/JJ)	.	16cc/JJ)	.	.	.	.	.	.	.	.	.	.	.	.	.	.	.	.	.	.
*Xtremolo	*	*	*Xtremolo	*	*	*	*	*	*	*	*	*	*	*	*	*	*	*	*	*	*	*	*	*	*
8FF/L	.	.	8f'\L	.	(16a/LL	.	8ff'\L	.	4F\	-us	4f\	-us	4cc\	-us	4ee-\	-us	.	.	.	.	.	.	.	.	.
.	.	.	.	.	16f/)	.	.	.	.	.	.	.	.	.	.	.	.	.	.	.	.	.	.	.	.
8FF/J	x x	.	8f'\J	.	(16a/	.	8ee-'\J	.	.	.	.	.	.	.	.	.	.	.	.	.	.	.	.	.	.
.	.	.	.	.	16f/JJ)	.	.	.	.	.	.	.	.	.	.	.	.	.	.	.	.	.	.	.	.
!LO:LB:g=original	!	!	!LO:LB:g=original	!	!	!	!	!	!	!	!LO:LB:g=original	!	!	!	!LO:LB:g=original	!	!	!	!	!	!	!	!	!	!
=12	=12	=12	=12	=12	=12	=12	=12	=12	=12	=12	=12	=12	=12	=12	=12	=12	=12	=12	=12	=12	=12	=12	=12	=12	=12
4BB-/	3	.	8.f\L	.	8.b-'\L	.	8.dd'\L	.	(4B-\	Sa-	2f\	Sa-	(4b-\	Sa-	(4dd\	Sa-	.	4d/	.	4b-\	.	4b-\	.	4dd\	.
.	.	.	16f\Jk	.	16b-'\Jk	.	16dd'\Jk	.	.	.	.	.	.	.	.	.	.	.	.	.	.	.	.	.	.
4AA/	5 3	.	8.f\L	.	8.cc'\L	.	8.ee-'\L	.	4A\)	.	.	.	4cc\)	.	4ee-\)	.	.	4f/	.	4cc\	.	4cc\	.	4ee-\	.
.	.	.	16f\Jk	.	16cc'\Jk	.	16ee-'\Jk	.	.	.	.	.	.	.	.	.	.	.	.	.	.	.	.	.	.
4BB-/	3	.	8.f\L	.	8.b-'\L	.	8.dd'\L	.	4B-\	-ba-	4f\	-ba-	4b-\	-ba-	4dd\	-ba-	.	4b-\	.	4dd\	.	4b-\	.	4dd\	.
.	.	.	16f\Jk	.	16b-'\Jk	.	16dd'\Jk	.	.	.	.	.	.	.	.	.	.	.	.	.	.	.	.	.	.
!	!	!	!	!	!	!	!	!	!	!	!	!	!	!	!	!	!	!LO:LB:g=original	!	!LO:LB:g=original	!	!	!	!LO:LB:g=original	!
=13	=13	=13	=13	=13	=13	=13	=13	=13	=13	=13	=13	=13	=13	=13	=13	=13	=13	=13	=13	=13	=13	=13	=13	=13	=13
4F\	6 4	.	4f\	.	(4b-\	.	(4dd\	.	4F\	-oth	4f\	-oth	4a\	-oth	4cc\	-oth	.	4b-\	.	4dd\	.	4b-\	.	(4dd\	.
!	!	!	!	!	!	!	!	!LO:DY:t=piano	!	!	!	!	!	!	!	!	!	!	!	!	!	!	!	!	!
4FF/	5 3	.	8f\	.	8a\)	p	8cc'\L)	p	4r	.	4r	.	4r	.	4r	.	.	8f/	.	8cc\	.	8a\	.	8cc\)	.
.	.	.	8r	.	(8f/L	.	(8a\	.	.	.	.	.	.	.	.	.	.	8r	.	8r	.	8r	.	8r	.
4r	.	p	4r	.	8g/	.	8b-\	.	4r	.	4r	.	4r	.	4r	.	.	4r	p	4r	.	4r	.	4r	.
.	.	.	.	.	8g#X/J)	.	8bn\J	.	.	.	.	.	.	.	.	.	.	.	.	.	.	.	.	.	.
=14	=14	=14	=14	=14	=14	=14	=14	=14	=14	=14	=14	=14	=14	=14	=14	=14	=14	=14	=14	=14	=14	=14	=14	=14	=14
!	!	!	!	!	!	!	!	!	!LO:TX:a:t=4	!	!LO:TX:a:t=4	!	!LO:TX:a:t=4	!	!LO:TX:a:t=4	!	!	!	!	!	!	!LO:TX:a:t=1	!	!LO:TX:a:t=1	!
4FF'/	.	.	4c\	.	(8.a/L	.	8.cc\L	.	0.r	.	0.r	.	0.r	.	0.r	.	.	4f/	.	4cc\	.	2.r	.	2.r	.
.	.	.	.	.	16b-/Jk)	.	16dd\Jk)	.	.	.	.	.	.	.	.	.	.	.	.	.	.	.	.	.	.
4F'\	.	.	8c\	.	8a'/L	.	8cc'\L	.	.	.	.	.	.	.	.	.	.	4r	.	4r	p	.	.	.	.
.	.	.	8r	.	(8f/	.	(8a\	.	.	.	.	.	.	.	.	.	.	.	.	.	.	.	.	.	.
4r	.	.	4r	.	8gn/	.	8b-X\	.	.	.	.	.	.	.	.	.	.	4r	.	4r	.	.	.	.	.
.	.	.	.	.	8g#X/J)	.	8bn\J	.	.	.	.	.	.	.	.	.	.	.	.	.	.	.	.	.	.
!	!	!	!	!	!	!	!	!	!	!	!	!	!	!	!	!	!	!	!	!	!	!LO:LB:g=original	!	!	!
=15	=15	=15	=15	=15	=15	=15	=15	=15	=15	=15	=15	=15	=15	=15	=15	=15	=15	=15	=15	=15	=15	=15	=15	=15	=15
4F/ 4FF/	5 3	.	4c\	.	4a/	.	4cc\)	.	.	.	.	.	.	.	.	.	.	4f/	.	4cc\	.	4a\	.	4cc\	.
4r	.	.	4r	.	(8a/L	.	(8cc\L	.	.	.	.	.	.	.	.	.	.	4r	.	4r	.	(8a\L	.	(8cc\L	.
.	.	.	.	.	8b-/)	.	8dd\)	.	.	.	.	.	.	.	.	.	.	.	.	.	.	8b-\)	.	(8dd\)	.
4C/	n	pp	4r	.	(8b-/	.	(8dd\	.	.	.	.	.	.	.	.	.	.	4b-\	.	4cc\	.	(8b-\	.	8dd\	.
.	.	.	.	.	8g/J)	.	8een\J)	.	.	.	.	.	.	.	.	.	.	.	.	.	.	8g\J)	.	8eeX\J)	.
!	!	!	!	!	!	!	!LO:LB:g=original	!	!	!	!	!	!	!	!	!	!	!	!	!	!	!	!	!	!
=16	=16	=16	=16	=16	=16	=16	=16	=16	=16	=16	=16	=16	=16	=16	=16	=16	=16	=16	=16	=16	=16	=16	=16	=16	=16
!	!	!	!	!	!	!LO:DY:t=pp&colon;	!	!LO:DY:t=pp&colon;	!	!	!	!	!	!	!	!	!	!	!	!	!	!	!LO:DY:t=Pia	!	!LO:DY:t=Pia
4F\	8_ 3_	.	8c\	pp	8a/	pp	8ff'\	pp	.	.	.	.	.	.	.	.	.	8f/	pp	8cc\	pp	8a\	p	8ff\	p
.	.	.	8r	.	8r	.	8r	.	.	.	.	.	.	.	.	.	.	8r	.	8r	.	8r	.	8r	.
4C/	.	.	8c\	.	8a'/	.	8ff'\	.	.	.	.	.	.	.	.	.	.	8f/	.	8cc\	.	8a\	.	8ff\	.
.	.	.	8r	.	8r	.	8r	.	.	.	.	.	.	.	.	.	.	8r	.	8r	.	8r	.	8r	.
4AA/	.	.	8c\	.	8a'/	.	8ff'\	.	.	.	.	.	.	.	.	.	.	8f/	.	8cc\	.	8a\	.	8ff\	.
.	.	.	8r	.	8r	.	8r	.	.	.	.	.	.	.	.	.	.	8r	.	8r	.	8r	.	8r	.
=17	=17	=17	=17	=17	=17	=17	=17	=17	=17	=17	=17	=17	=17	=17	=17	=17	=17	=17	=17	=17	=17	=17	=17	=17	=17
*	*	*	*	*	*	*	*2\right	*	*	*	*	*	*	*	*	*	*	*	*	*	*	*	*	*	*
2FF/	X X	.	2c\	.	2a'/	.	2ff'\	.	.	.	.	.	.	.	.	.	.	2f/	.	2cc\	.	2a\	.	2ff\	.
!	!	!	!	!	!	!	!	!	!	!	!	!	!	!	!	!	!	!LO:TX:i:b:t=volti Citto Plenÿ	!	!	!	!	!	!	!
4r	.	.	4r	.	4r	.	4r	.	.	.	.	.	.	.	.	.	.	4r	.	4r	.	4r	.	4r	.
==	==	==	==	==	==	==	==	==	==	==	==	==	==	==	==	==	==	==	==	==	==	==	==	==	==
*-	*-	*-	*-	*-	*-	*-	*-	*-	*-	*-	*-	*-	*-	*-	*-	*-	*-	*-	*-	*-	*-	*-	*-	*-	*-
!!!system-decoration: [(g1)][(g2)][(g3)][(g4)]s12
!!!RDF**dynam: f = "fort"
!!!RDF**dynam: p = "pia"
!!!RDF**kern: > = above
!!!RDF**kern: < = below
!!!ENC: Marcin Jachim
!!!END: 2020-10-30
!!!EED: Andrzej Borzym
!!!EEV: 2022-04-21
!!!YEC: Copyright 2022 Narodowy Instytut Fryderyka Chopina (https://polishscores.org)
!!!YEM: License CC-BY-4.0 (https://creativecommons.org/licenses/by/4.0)
